src/assets/Group87.svg

<svg width="34" height="34" viewBox="0 0 34 34" fill="none" xmlns="http://www.w3.org/2000/svg">
<rect width="34" height="34" rx="17" fill="white"/>
<g clip-path="url(#clip0_297_776)">
<path d="M12.6328 24V13.8795H9.20251V24H12.6328ZM10.9181 12.4969C12.1143 12.4969 12.8589 11.7198 12.8589 10.7486C12.8366 9.75556 12.1144 9 10.9408 9C9.76743 9 9.00012 9.75558 9.00012 10.7486C9.00012 11.7198 9.74452 12.4969 10.8957 12.4969H10.918H10.9181ZM14.5315 24H17.9618V18.3482C17.9618 18.0458 17.9841 17.7436 18.0746 17.5274C18.3226 16.923 18.8871 16.2971 19.8346 16.2971C21.0759 16.2971 21.5725 17.2252 21.5725 18.5857V23.9999H25.0026V18.1969C25.0026 15.0883 23.3103 13.6419 21.0533 13.6419C19.2028 13.6419 18.3903 14.6563 17.939 15.3471H17.9619V13.8793H14.5315C14.5766 14.829 14.5315 23.9998 14.5315 23.9998L14.5315 24Z" fill="#192031"/>
</g>
<defs>
<clipPath id="clip0_297_776">
<rect width="16" height="15" fill="white" transform="translate(9.00012 9)"/>
</clipPath>
</defs>
</svg>

<svg xmlns="http://www.w3.org/2000/svg" width="34" height="34" fill="none"><rect width="34" height="34" fill="#fff" rx="17"/><g clip-path="url(#a)"><path fill="#192031" d="M12.633 24V13.88h-3.43V24zm-1.715-11.503c1.196 0 1.94-.777 1.94-1.748C12.838 9.756 12.115 9 10.942 9S9 9.756 9 10.749c0 .97.744 1.748 1.895 1.748zM14.532 24h3.43v-5.652c0-.302.022-.604.113-.82.248-.605.812-1.23 1.76-1.23 1.24 0 1.738.927 1.738 2.288V24h3.43v-5.803c0-3.109-1.693-4.555-3.95-4.555-1.85 0-2.663 1.014-3.114 1.705h.023V13.88h-3.43c.045.95 0 10.12 0 10.12z"/></g><defs><clipPath id="a"><path fill="#fff" d="M9 9h16v15H9z"/></clipPath></defs></svg>
